src/people-body/person-role/1F472.svg

<svg id="emoji" viewBox="0 0 72 72" version="1.1" xmlns="http://www.w3.org/2000/svg">
  <g id="grid">
    <path fill="#b3b3b3" d="M68,4V68H4V4H68m4-4H0V72H72V0Z"/>
    <path fill="none" stroke="#00a5ff" stroke-miterlimit="10" stroke-width="0.1" d="m12.92 10.96h46.15a1.923 1.923 0 0 1 1.923 1.923v46.15a1.923 1.923 0 0 1-1.923 1.923h-46.15a1.923 1.923 0 0 1-1.923-1.923v-46.15a1.923 1.923 0 0 1 1.923-1.923z"/>
    <rect x="16" y="4" rx="2.254" ry="2.254" width="40" height="64" fill="none" stroke="#00a5ff" stroke-miterlimit="10" stroke-width="0.1"/>
    <rect x="16" y="4" rx="2.254" ry="2.254" width="40" height="64" transform="translate(72) rotate(90)" fill="none" stroke="#00a5ff" stroke-miterlimit="10" stroke-width="0.1"/>
    <circle cx="36" cy="36" r="29" fill="none" stroke="#00a5ff" stroke-miterlimit="10" stroke-width="0.1"/>
  </g>
  <g id="color">
    <path fill="#ea5a47" d="m14.2 22.78 42.29-0.1777s-3.513-15.66-22.58-14.65-19.7 14.83-19.7 14.83z"/>
    <path fill="#d22f27" d="m12.83 23.13c14.66-2.151 31.54-2.378 46.17 0-0.5201 0.965 2.919 7.022 1.004 7.903-16.2-3.621-31.88-1.554-48.18 0 1.078-1.432-1.526-6.867 1.004-7.903z"/>
    <circle cx="36" cy="25.01" r="3.597" fill="#f1b31c"/>
    <path fill="#5c9e31" d="m28.88 8.708c1.004 0.2433 8.503-1.764 13.79 0.2433v12.27h-13.5z"/>
  </g>
  <g id="skin">
    <path fill="#fcea2b" d="m53.2 30.02c3.393 0.861 2.024 6.922 2.024 10.81 0 13.35-8.613 24.17-19.24 24.17s-19.24-10.82-19.24-24.17c-0.01644-3.822 0.7184-7.609 2.163-11.15 0 0 26.49-1.638 34.29 0.3416z"/>
  </g>
  <g id="hair" fill="#f1b31c">
    <path d="M13,31c-3,7,4.0909,11.853,2.476,11.0792L18,30Z"/>
    <path d="M53,30l2.9041,12.0792C54.2891,42.853,62,38,59,31Z"/>
  </g>
  <g id="line">
    <path d="m32.03 40.84a2.839 2.839 0 1 1-2.839-2.839 2.847 2.847 0 0 1 2.839 2.839"/>
    <path d="m45.65 40.84a2.839 2.839 0 1 1-2.839-2.839 2.847 2.847 0 0 1 2.839 2.839"/>
    <path fill="none" stroke="#000" stroke-linecap="round" stroke-miterlimit="10" stroke-width="2" d="m31.19 52.74c-0.0466 0.01 5.015 2.831 9.591 0"/>
    <path fill="none" stroke="#000" stroke-linecap="round" stroke-miterlimit="10" stroke-width="2" d="m25.9 34.07a11.61 11.61 0 0 1 6.596 0"/>
    <path fill="none" stroke="#000" stroke-linecap="round" stroke-miterlimit="10" stroke-width="2" d="m39.51 34.07a11.61 11.61 0 0 1 6.596 0"/>
    <path fill="none" stroke="#000" stroke-linecap="round" stroke-linejoin="round" stroke-width="2" d="m56.99 22s-2.936-14.05-21.25-14.05-21.08 14.05-21.08 14.05"/>
    <line x1="42.67" x2="42.67" y1="21" y2="9.596" fill="none" stroke="#000" stroke-linecap="round" stroke-linejoin="round" stroke-width="2"/>
    <path fill="none" stroke="#000" stroke-linecap="round" stroke-linejoin="round" stroke-width="2" d="m60 31.03c-23.55-4.592-48.21-0.1832-48.18 0-0.5085-2.755-0.1064-5.38 1.004-7.903 29.86-4.891 45.62 0.1826 46.17 0 0.5151 1.408 0.9492 2.817 1.144 4.225 0.1694 1.226 0.1575 2.452-0.1401 3.678z"/>
    <line x1="28.85" x2="28.85" y1="8.951" y2="21.22" fill="none" stroke="#000" stroke-linecap="round" stroke-linejoin="round" stroke-width="2"/>
    <path fill="none" stroke="#000" stroke-linecap="round" stroke-linejoin="round" stroke-width="2" d="m55.9 41.34c-0.1719 0.0784 4.626-2.616 3.092-10.3"/>
    <path fill="none" stroke="#000" stroke-linecap="round" stroke-linejoin="round" stroke-width="2" d="m18.63 30.03c-0.8024 1.569-1.333 3.262-1.568 5.008-0.3463 1.91-0.5173 3.847-0.5107 5.788v0.34c0.1699 13.28 8.682 23.83 19.25 23.83s19.08-10.56 19.25-23.83v-0.34c0.0066-1.941-0.1644-3.878-0.5107-5.788-0.2355-1.746-0.7658-3.439-1.568-5.008"/>
    <path fill="none" stroke="#000" stroke-linecap="round" stroke-linejoin="round" stroke-width="2" d="m12.61 31.03c-1.534 7.687 3.264 10.38 3.092 10.3"/>
    <circle cx="36" cy="24.98" r="3.953" fill="none" stroke="#000" stroke-miterlimit="10" stroke-width="2"/>
  </g>
</svg>

<svg id="emoji" viewBox="0 0 72 72" xmlns="http://www.w3.org/2000/svg">
  <g id="grid">
    <path fill="#b3b3b3" d="M68,4V68H4V4H68m4-4H0V72H72V0Z"/>
    <path fill="none" stroke="#00a5ff" stroke-miterlimit="10" stroke-width="0.1" d="M12.923,10.9583H59.0769A1.9231,1.9231,0,0,1,61,12.8814V59.0352a1.9231,1.9231,0,0,1-1.9231,1.9231H12.9231A1.9231,1.9231,0,0,1,11,59.0352V12.8813A1.923,1.923,0,0,1,12.923,10.9583Z"/>
    <rect x="16" y="4" rx="2.2537" ry="2.2537" width="40" height="64" fill="none" stroke="#00a5ff" stroke-miterlimit="10" stroke-width="0.1"/>
    <rect x="16" y="4" rx="2.2537" ry="2.2537" width="40" height="64" transform="translate(72) rotate(90)" fill="none" stroke="#00a5ff" stroke-miterlimit="10" stroke-width="0.1"/>
    <circle cx="36" cy="36" r="29" fill="none" stroke="#00a5ff" stroke-miterlimit="10" stroke-width="0.1"/>
  </g>
  <g id="color">
    <path fill="#ea5a47" d="M14.2,22.7783S45.6491,35.58,56.4873,22.6006C56.9891,22,52.974,6.9438,33.9033,7.9476S14.2,22.7783,14.2,22.7783Z"/>
    <path fill="#d22f27" d="M12.5423,24.9832a2.942,2.942,0,0,1,2.2534-2.3226,144.6469,144.6469,0,0,1,44.2006.3427l.3506,5.8221a1.5776,1.5776,0,0,1-1.8608,1.7214S40.734,28.2212,36.8168,28.6234s-22.9979,1.3108-22.9979,1.3108A1.5942,1.5942,0,0,1,12.1041,28.05Z"/>
    <circle cx="35.9108" cy="25.0108" r="2.5544" fill="#f1b31c"/>
    <path fill="#5c9e31" d="M28.8847,8.708c1.0038.2433,8.503-1.7642,13.7868.2433V21.2189H29.176Z"/>
  </g>
  <g id="skin">
    <path fill="#fcea2b" d="M53.1991,30.02c3.3927.861,2.024,6.9216,2.024,10.8054C55.2231,54.1768,46.61,65,35.9857,65S16.7484,54.1768,16.7484,40.8256a29.1619,29.1619,0,0,1,2.1628-11.1472S45.3982,28.04,53.1991,30.02Z"/>
  </g>
  <g id="hair">
    <path fill="#f1b31c" d="M13,31c-3,7,4.0909,11.853,2.476,11.0792L18,30Z"/>
    <path fill="#f1b31c" d="M53,30l2.9041,12.0792C54.2891,42.853,62,38,59,31Z"/>
  </g>
  <g id="line">
    <path fill="#000000" d="M31.9038,40.8387A2.8387,2.8387,0,1,1,29.0651,38a2.847,2.847,0,0,1,2.8387,2.8387"/>
    <path fill="#000000" d="M45.5282,40.8387A2.8388,2.8388,0,1,1,42.6894,38a2.8471,2.8471,0,0,1,2.8388,2.8387"/>
    <path fill="none" stroke="#000000" stroke-linecap="round" stroke-miterlimit="10" stroke-width="2" d="M31.4086,52.7393c-.0466.01,5.0152,2.8314,9.5914,0"/>
    <path fill="none" stroke="#000000" stroke-linecap="round" stroke-miterlimit="10" stroke-width="2" d="M26.0113,34.0693a11.6088,11.6088,0,0,1,6.5961,0"/>
    <path fill="none" stroke="#000000" stroke-linecap="round" stroke-miterlimit="10" stroke-width="2" d="M39.6175,34.0693a11.6084,11.6084,0,0,1,6.596,0"/>
    <path fill="none" stroke="#000" stroke-linecap="round" stroke-linejoin="round" stroke-width="2" d="M56.9888,22S54.0532,7.9484,35.7348,7.9484,14.6556,22,14.6556,22"/>
    <line x1="42.6715" x2="42.6715" y1="20.9959" y2="9.596" fill="none" stroke="#000" stroke-linecap="round" stroke-linejoin="round" stroke-width="2"/>
    <path fill="none" stroke="#000" stroke-linecap="round" stroke-linejoin="round" stroke-width="2" d="M60,31.0331c-23.546-4.5925-48.2065-.1832-48.1785,0L12.8253,23.13c29.8553-4.8911,45.6173.1826,46.171,0Z"/>
    <line x1="28.8531" x2="28.8531" y1="8.9513" y2="21.2189" fill="none" stroke="#000" stroke-linecap="round" stroke-linejoin="round" stroke-width="2"/>
    <g>
      <g>
        <path fill="none" stroke="#000" stroke-linecap="round" stroke-linejoin="round" stroke-width="2" d="M35.8155,65c10.555,0,19.0671-10.555,19.2373-23.8339v-.34a31.8356,31.8356,0,0,0-.5107-5.7882,15.5683,15.5683,0,0,0-1.5681-5.0081"/>
        <path fill="none" stroke="#000" stroke-linecap="round" stroke-linejoin="round" stroke-width="2" d="M55.9041,41.3363c-.1719.0784,4.6259-2.6161,3.0922-10.3032"/>
      </g>
      <g>
        <path fill="none" stroke="#000" stroke-linecap="round" stroke-linejoin="round" stroke-width="2" d="M18.629,30.0293a15.5686,15.5686,0,0,0-1.5682,5.0081,31.8356,31.8356,0,0,0-.5107,5.7882v.34C16.72,54.445,25.2325,65,35.7875,65"/>
        <path fill="none" stroke="#000" stroke-linecap="round" stroke-linejoin="round" stroke-width="2" d="M12.6067,31.0331c-1.5338,7.6871,3.264,10.3816,3.0922,10.3032"/>
      </g>
    </g>
    <circle cx="35.9108" cy="25.0108" r="3.0112" fill="none" stroke="#000" stroke-miterlimit="10" stroke-width="2"/>
  </g>
</svg>
